assets/icons/regular/docx-icon-regular.svg

<svg width="32" height="32" viewBox="0 0 32 32" fill="none" xmlns="http://www.w3.org/2000/svg">
<path fill-rule="evenodd" clip-rule="evenodd" d="M8 2.79365V29.2064C8 30.7492 9.23122 32 10.75 32H29.25C30.7688 32 32 30.7492 32 29.2064V7.35127C32 6.60502 31.7061 5.88979 31.1838 5.36503L26.6478 0.807413C26.133 0.29013 25.4381 0 24.714 0H10.75C9.23122 0 8 1.25076 8 2.79365ZM9.75 29.2064V2.79365C9.75 2.2326 10.1977 1.77778 10.75 1.77778H24.375V7.87302C24.375 8.92499 25.2145 9.77778 26.25 9.77778H30.25V29.2064C30.25 29.7674 29.8023 30.2222 29.25 30.2222H10.75C10.1977 30.2222 9.75 29.7674 9.75 29.2064ZM30.25 8V7.35127C30.25 7.07991 30.1431 6.81982 29.9532 6.629L26.125 2.78254V7.87302C26.125 7.94315 26.181 8 26.25 8H30.25Z" fill="#9D9C9B"/>
<path fill-rule="evenodd" clip-rule="evenodd" d="M20.5 13.125C20.5 12.6418 20.8918 12.25 21.375 12.25H27.125C27.6082 12.25 28 12.6418 28 13.125C28 13.6082 27.6082 14 27.125 14H21.375C20.8918 14 20.5 13.6082 20.5 13.125Z" fill="#6BB3EC"/>
<path fill-rule="evenodd" clip-rule="evenodd" d="M20.5 17.125C20.5 16.6418 20.8918 16.25 21.375 16.25H27.125C27.6082 16.25 28 16.6418 28 17.125C28 17.6082 27.6082 18 27.125 18H21.375C20.8918 18 20.5 17.6082 20.5 17.125Z" fill="#508FD6"/>
<path fill-rule="evenodd" clip-rule="evenodd" d="M20.5 21.125C20.5 20.6418 20.8918 20.25 21.375 20.25H27.125C27.6082 20.25 28 20.6418 28 21.125C28 21.6082 27.6082 22 27.125 22H21.375C20.8918 22 20.5 21.6082 20.5 21.125Z" fill="#3770C3"/>
<path d="M0 9.25C0 8.42157 0.671573 7.75 1.5 7.75H16.5C17.3284 7.75 18 8.42157 18 9.25V24.25C18 25.0784 17.3284 25.75 16.5 25.75H1.5C0.671573 25.75 0 25.0784 0 24.25V9.25Z" fill="#3770C3"/>
<path d="M5.46191 21.5215L3.5 11.5H5.20215L6.43262 18.3838L7.93652 11.5H9.91211L11.3545 18.5L12.6191 11.5H14.2871L12.291 21.5215H10.5273L8.88672 14.0293L7.25977 21.5215H5.46191Z" fill="white"/>
</svg>

<svg xmlns="http://www.w3.org/2000/svg" width="32" height="32" fill="none" viewBox="0 0 32 32"><path fill="#9D9C9B" fill-rule="evenodd" d="M8 2.794v26.412C8 30.75 9.231 32 10.75 32h18.5c1.519 0 2.75-1.25 2.75-2.794V7.351c0-.746-.294-1.461-.816-1.986L26.648.807A2.73 2.73 0 0 0 24.714 0H10.75C9.231 0 8 1.25 8 2.794m1.75 26.412V2.794c0-.561.448-1.016 1-1.016h13.625v6.095c0 1.052.84 1.905 1.875 1.905h4v19.428c0 .561-.448 1.016-1 1.016h-18.5c-.552 0-1-.455-1-1.016M30.25 8v-.649c0-.271-.107-.531-.297-.722l-3.828-3.846v5.09c0 .07.056.127.125.127z" clip-rule="evenodd"/><path fill="#6BB3EC" fill-rule="evenodd" d="M20.5 13.125c0-.483.392-.875.875-.875h5.75a.875.875 0 0 1 0 1.75h-5.75a.875.875 0 0 1-.875-.875" clip-rule="evenodd"/><path fill="#508FD6" fill-rule="evenodd" d="M20.5 17.125c0-.483.392-.875.875-.875h5.75a.875.875 0 0 1 0 1.75h-5.75a.875.875 0 0 1-.875-.875" clip-rule="evenodd"/><path fill="#3770C3" fill-rule="evenodd" d="M20.5 21.125c0-.483.392-.875.875-.875h5.75a.875.875 0 0 1 0 1.75h-5.75a.875.875 0 0 1-.875-.875" clip-rule="evenodd"/><path fill="#3770C3" d="M0 9.25a1.5 1.5 0 0 1 1.5-1.5h15a1.5 1.5 0 0 1 1.5 1.5v15a1.5 1.5 0 0 1-1.5 1.5h-15a1.5 1.5 0 0 1-1.5-1.5z"/><path fill="#fff" d="M5.462 21.522 3.5 11.5h1.702l1.23 6.884L7.938 11.5h1.975l1.442 7 1.265-7h1.668l-1.996 10.022h-1.764l-1.64-7.493-1.627 7.493z"/></svg>
